X:9006
T:It Came Upon the Midnight Clear
R:March
C:A Sullivan after Trad.
O:England
Z:Paul Hardy's Xmas Parts Tunebook 2022 (see www.paulhardy.net). Creative Commons cc by-nc-sa licenced.
M:4/4
L:1/8
Q:1/4=110
P:AB2
K:G
P:A
V:1
%%score [1]
%%partsbox 1
%%voicecolor black
%%MIDI program 23 % Tango Accd.
GA|Bc d2 B2 A2|G6||
%%score [1 2 3 4]
P:B
V:1
%%voicecolor black
%%MIDI program 23 % Tango Accd.
GA|"G"B2 A2 "Em"G2 AB|"C"c2 B2 "D"A2 d2|"G"d2 B2 "C"cd e2|"G"d6||"G"Bc|d2 d2 "Em"B2 G2|"C"c2 B2 "D"A2 GA|"G"Bc d2 "D"B2 A2|"G"G6||
"G"G2|"B7"F2 E2 F2 A2|"Em"G3 F E2 B2|"A7"A2 G2 F2 E2|"D"D6|"D"D2||"G"d2 c2 "Em"B2 AB|"C"c2 B2 "D"A2 GA|"G"Bc d2 "D"B2 A2|"G"G6|]
V:2
%%voicecolor maroon
%%MIDI program 65 % Alto Sax
G2|G2 F2 G2 EG|F2 G2 F2 F2|G2 G2 G2 G2|G6||G2|F2 F2 G2 G2|G2 G2 F2 G2|G2 D2 G2 F2|G6||
E2|^D2 E2 E2 D2|E3 ^D E2 G2|F2 E2 D2 ^C2|D6||D2|B2 A2 ^G2 FG|AF G2 F2 G2|GA B2 G2 F2|G6|]
V:3 clef=treble-8 transpose = -12
%%voicecolor teal
%%MIDI program 42 % Cello
Bc|d2 d2 B2 ed|c2 d2 d2 d2|d2 d2 c2 c2|B6||d2|d2 A2 G2 B2|e2 d2 d2 B2|G2 G2 d2 c2|B6||
G2|A2 B2 c2 B2|B3 A G2 ^c2|d2 B2 A2 G2|F6||D2|d2 d2 d2 cB|A2 d2 d2 B2|d3 d d2 c2|B6|]
V:4 clef=treble-8 transpose= -12
%%voicecolor blue
%%MIDI program 32 % Acoustic Bass
G2|G2 D2 G2 cB|A2 G2 D2 c2|B2 G2 E2 C2|G6||G2|D2 D2 E2 E2|C2 G2 D2 G2|E2 B,C D2 D2|G,6||
E2|F2 G2 A2 B2|E3 E E2 E2|F2 G2 A2 A,2|D6||D2|B,2 CD E2 E2|A,2 B,C D2 E2|B,2 A,G, D2 D2|G,6|]
W:It came upon the midnight clear,
W:That glorious song of old,
W:From angels bending near the earth,
W:To touch their harps of gold:
W:
W:Peace on the earth, goodwill to men,
W:From heaven's all-gracious King.
W:The world in solemn stillness lay,
W:To hear the angels sing.
W:
W:(Edmund Hamilton Sears, 1849)

